svgs/solid/object-intersect.svg

<svg xmlns="http://www.w3.org/2000/svg" viewBox="0 0 512 512"><!--! Font Awesome Pro 6.6.0 by @fontawesome - https://fontawesome.com License - https://fontawesome.com/license (Commercial License) Copyright 2024 Fonticons, Inc. --><path d="M288 64l0 96-64 0c-35.3 0-64 28.7-64 64l0 64-96 0L64 64l224 0zM64 352l96 0 0 96c0 35.3 28.7 64 64 64l224 0c35.3 0 64-28.7 64-64l0-224c0-35.3-28.7-64-64-64l-96 0 0-96c0-35.3-28.7-64-64-64L64 0C28.7 0 0 28.7 0 64L0 288c0 35.3 28.7 64 64 64zM448 224l0 224-224 0 0-96 64 0c35.3 0 64-28.7 64-64l0-64 96 0z"/></svg>

<svg xmlns="http://www.w3.org/2000/svg" viewBox="0 0 512 512"><!--! Font Awesome Pro 6.4.2 by @fontawesome - https://fontawesome.com License - https://fontawesome.com/license (Commercial License) Copyright 2023 Fonticons, Inc. --><path d="M288 64v96H224c-35.3 0-64 28.7-64 64v64H64V64H288zM64 352h96v96c0 35.3 28.7 64 64 64H448c35.3 0 64-28.7 64-64V224c0-35.3-28.7-64-64-64H352V64c0-35.3-28.7-64-64-64H64C28.7 0 0 28.7 0 64V288c0 35.3 28.7 64 64 64zM448 224V448H224V352h64c35.3 0 64-28.7 64-64V224h96z"/></svg>
